X: 5
T: The Girl Who Broke My Heart
R: reel
M: 4/4
L: 1/8
K: Amin
|:ed|cAGA ED3 |EAAG ABcd|efge dBAG| EAAG A2 ed|
cAGA ED3 |EAAG ABcd|efge dBAG|EAAG A2 ||
|:E2|A2ce aecA|G2Bd gdBG|A2ce aece|dcAG EAAE|
A2ce aecA|G2Bd gdBG|ABce dBAG|EAAG A2:||


Tune 669	Setting 669

